Papirus/48x48/apps/pulsar.svg

<svg id="svg23" width="48" height="48" version="1.1" xmlns="http://www.w3.org/2000/svg">
 <circle id="circle2" cx="24" cy="25" r="20" style="opacity:.2"/>
 <circle id="circle4" cx="24" cy="24" r="20" style="fill:#6a1b9a"/>
 <path id="path6" d="M 24,4 A 20,20 0 0 0 4,24 20,20 0 0 0 4.0351562,24.5 20,20 0 0 1 24,5 20,20 0 0 1 43.982422,24.25 20,20 0 0 0 44,24 20,20 0 0 0 24,4 Z" style="fill:#ffffff;opacity:.2"/>
 <path id="path8" d="m38.476562 10.208984-9.097656 7.623047-0.785156 2.015625c-0.118377-0.04448-0.251592-0.074218-0.384766-0.074218-0.251549 0-0.502949 0.104142-0.695312 0.296874-0.384724 0.385466-0.384724 1.022753 0 1.408204 0.192363 0.192732 0.444589 0.296875 0.710937 0.296875 0.251551 0 0.503778-0.104143 0.710938-0.296875 0.295943-0.296506 0.368675-0.726219 0.220703-1.082032l2.013672-0.785156 7.613281-9.080078a20 20 0 0 0-0.306641-0.322266zm-20.269531 0.791016c-2.343314 0.01324-4.434675 0.746548-5.947265 2.253906-2.065063 2.063816-2.7381378 5.240212-1.917969 8.94336 0.214482 0.944072 0.520311 1.892915 0.910156 2.835937-1.6317061 4.277647-1.7156672 8.259832 0.027344 10.46875l0.849609-1.009765c-1.149863-2.086619-1.152919-4.920868-0.154297-7.90625 0.797105 1.544407 1.815271 3.053314 3.025391 4.466796l0.804688-0.966796c-1.344794-1.610951-2.434466-3.332639-3.214844-5.076172 1.023974-2.299357 2.612938-4.625932 4.708984-6.720704 2.052257-2.051002 4.36152-3.6592 6.712891-4.699218 1.71312 0.767794 3.439914 1.848904 5.076172 3.220703l0.966797-0.804688c-1.438574-1.225099-2.954311-2.235046-4.482422-3.019531 0.504058-0.167031 1.008178-0.310689 1.509765-0.421875 2.519089-0.570814 4.745416-0.365502 6.429688 0.556641l1.009765-0.847656c-1.379457-0.875503-3.076662-1.308153-4.988281-1.269532-0.86892 0.01754-1.781111 0.13267-2.728515 0.347656-0.93962 0.209957-1.886807 0.512321-2.826172 0.898438-1.973961-0.83488-3.948907-1.260298-5.771485-1.25zm-0.054687 1.226562c1.340262-0.014059 2.791698 0.238804 4.279297 0.740235-2.119439 1.089514-4.172552 2.596587-6.011719 4.443359-1.882849 1.881708-3.373357 3.950239-4.441406 6.041016-0.173179-0.512144-0.319586-1.023812-0.435547-1.533203-0.732292-3.264043-0.175473-6.030674 1.582031-7.78711 1.268696-1.267922 3.024927-1.883433 5.027344-1.904297zm18.582031 2.25586-0.849609 1.009766c0.702999 1.288061 0.981416 2.897917 0.820312 4.71289 0.366147 0.585479 0.703175 1.156709 0.996094 1.742188 0.615124-2.927393 0.278103-5.518132-0.966797-7.464844zm-12.763672 2.517578c-4.400747 0-7.970703 3.59696-7.970703 8.03125 0 1.554291 0.437721 2.986414 1.208984 4.220703l0.439454-0.167969c0.075609-0.457142 0.272264-0.869464 0.589843-1.189453 0.06049-0.06096 0.135325-0.120306 0.210938-0.166015-0.393191-0.822855-0.634766-1.737641-0.634766-2.712891 0-3.428572 2.767283-6.216797 6.169922-6.216797 0.967863 0 1.876729 0.227223 2.693359 0.638672 0.06049-0.0762 0.105525-0.151942 0.166016-0.212891 0.317581-0.320017 0.709874-0.517146 1.148438-0.578125l0.166015-0.443359c-1.224949-0.761919-2.644972-1.203125-4.1875-1.203125zm9.029297 1.933594-0.806641 0.964844c1.373335 1.636134 2.456285 3.365754 3.22461 5.080078l-0.03125 0.072265c-1.054503 2.341929-2.665395 4.653887-4.671875 6.644531-2.943818 2.942058-6.414659 4.978095-9.783203 5.72461-2.519089 0.570844-4.745414 0.364496-6.429688-0.572266l-1.011719 0.84961c1.332773 0.863606 3.096024 1.302734 4.91211 1.302734 0.937332 0 1.781431-0.131026 2.80664-0.365234 3.602883-0.80498 7.294489-2.957497 10.384766-6.060547 1.826504-1.825375 3.347886-3.888521 4.445312-6.019531 1.251751 3.711242 0.952026 7.191256-1.166015 9.298828-1.596399 1.595442-4.100121 2.194951-7 1.726562-0.541897 0.336635-1.097756 0.643777-1.654297 0.921875 1.230251 0.322031 2.400588 0.498047 3.513672 0.498047 2.431208 0 4.525653-0.760964 6.019531-2.253906 3.866506-3.878835 2.564492-11.562499-2.751953-17.8125zm-2.195312 1.814453-0.4375 0.167969c-0.09074 0.457142-0.28789 0.869435-0.605469 1.189453-0.06049 0.06097-0.135324 0.122245-0.210938 0.167969 0.393195 0.822839 0.634766 1.735701 0.634766 2.710937 0 3.428572-2.767282 6.216797-6.169922 6.216797-0.967861 0-1.874774-0.227237-2.691406-0.638672-0.06049 0.07621-0.107479 0.151912-0.167969 0.212891-0.317584 0.319987-0.709876 0.51719-1.148438 0.578125l-0.166015 0.443359c1.22495 0.761875 2.644969 1.203125 4.1875 1.203125 4.400745 0 7.970703-3.596961 7.970703-8.03125 0-1.554277-0.43917-2.986414-1.195312-4.220703zm-6.804688 0.251953a3.9999999 3.9999999 0 0 0-4 4 3.9999999 3.9999999 0 0 0 4 4 3.9999999 3.9999999 0 0 0 4-4 3.9999999 3.9999999 0 0 0-4-4zm-4.224609 7.224609c-0.25155 0-0.503778 0.104143-0.710938 0.296875-0.295941 0.296505-0.368675 0.72622-0.220703 1.082032l-2.013672 0.785156-6.683594 7.970703a20 20 0 0 0 0.490235 0.490234l7.955078-6.695312 0.783203-2.017578c0.118377 0.04447 0.251591 0.074219 0.384766 0.074219 0.25155 0 0.502949-0.104143 0.695312-0.296876 0.384726-0.385465 0.384726-1.022752 0-1.408203-0.177566-0.192732-0.428136-0.28125-0.679687-0.28125zm-0.865235 4.935547-0.966797 0.804688c0.849459 0.731852 1.743326 1.390121 2.666016 1.990234 0.3515-0.117076 1.083064-0.409332 1.390625-0.599609-1.142378-0.658636-2.035342-1.317073-3.089844-2.195313z" style="opacity:.2"/>
 <path id="circle10" class="st1" transform="matrix(.14797157 0 0 .14797157 154.90297 240.5195)" d="m-781.10075-1568.0005-67.19777 56.3083-5.30613 13.6217c-0.8-0.3006-1.70027-0.5016-2.60027-0.5016-1.69999 0-3.39896 0.7038-4.69896 2.0063-2.59999 2.605-2.59999 6.9118 0 9.5167 1.3 1.3025 3.00456 2.0063 4.80456 2.0063 1.7 0 3.40455-0.7038 4.80455-2.0063 2-2.0038 2.49153-4.9078 1.49153-7.3124l13.6085-5.3061 56.29513-67.1318-1.20114-1.2011zm-66.15502 10.1635c-5.87221 0.1185-12.03684 0.8965-18.43946 2.3494-6.35 1.4189-12.75114 3.4623-19.09943 6.0717-30.49176-12.8964-61.02319-11.3254-79.19595 6.7845-13.95582 13.9474-18.50449 35.4136-12.96174 60.4397 1.44948 6.3801 3.51629 12.7924 6.15089 19.1654-11.02717 28.9086-11.59461 55.8204 0.18479 70.7484l5.7417-6.8241c-7.77086-14.1015-7.79149-33.2554-1.04274-53.4308 5.38688 10.4372 12.26769 20.6344 20.44575 30.1868l5.43812-6.5336c-9.0882-10.8869-16.45225-22.5222-21.72609-34.3051 6.92008-15.5392 17.65837-31.2623 31.82358-45.4189 13.86928-13.8608 29.47537-24.729 45.36608-31.7575 11.57737 5.1888 23.24712 12.4949 34.30505 21.7656l6.53367-5.4381c-9.72197-8.2793-19.96539-15.1045-30.29246-20.4061 3.40646-1.1288 6.81332-2.0997 10.20308-2.8511 17.02416-3.8576 32.06977-2.4701 43.45218 3.7618l6.82406-5.7285c-9.32246-5.9167-20.79224-8.8405-33.71108-8.5795zm-76.91248 8.2627c9.05758-0.095 18.86645 1.6139 28.91973 5.0026-14.3233 7.363-28.19832 17.5478-40.62753 30.0284-12.72441 12.7167-22.79733 26.696-30.01527 40.8256-1.17035-3.4611-2.15978-6.919-2.94345-10.3615-4.94887-22.0586-1.18586-40.7556 10.69146-52.6257 8.57392-8.5687 20.4426-12.7284 33.97506-12.8694zm125.57839 15.2453-5.7417 6.824c4.75091 8.7048 6.63246 19.5843 5.54371 31.85 2.47444 3.9567 4.7521 7.8171 6.73166 11.7738 4.15705-19.7835 1.87944-37.2918-6.53367-50.4478zm-86.25759 17.0139c-29.74052 0-53.86645 24.3084-53.86645 54.2756 0 10.504 2.95813 20.1824 8.17038 28.5238l2.96985-1.1352c0.511-3.0894 1.83997-5.8759 3.98619-8.0384 0.40881-0.412 0.91453-0.813 1.42553-1.1219-2.65721-5.5609-4.28978-11.7431-4.28978-18.3339 0-23.1705 18.70143-42.0134 41.69667-42.0134 6.54088 0 12.68303 1.5355 18.20187 4.3161 0.40881-0.515 0.71315-1.0268 1.12195-1.4387 2.14623-2.1627 4.79736-3.4949 7.7612-3.907l1.12194-2.9962c-8.27828-5.1491-17.87485-8.1308-28.29935-8.1308zm61.02048 13.0673-5.45132 6.5205c9.28108 11.0571 16.5997 22.7459 21.79209 34.3314l-0.21119 0.4884c-7.1264 15.8269-18.01287 31.4512-31.57279 44.9041-19.8945 19.8826-43.35059 33.6422-66.11542 38.6872-17.02416 3.8578-32.06976 2.4633-43.45219-3.8674l-6.83725 5.7417c9.00696 5.8363 20.92309 8.804 33.19631 8.804 6.33455 0 12.039-0.8855 18.96743-2.4683 24.3485-5.4401 49.29654-19.9869 70.18082-40.9575 12.34363-12.336 22.62518-26.2788 30.04166-40.6803 8.45941 25.0808 6.43385 48.5989-7.88 62.842-10.78856 10.7821-27.70882 14.8336-47.30638 11.6682-3.66217 2.275-7.41869 4.3507-11.17983 6.2301 8.31411 2.1763 16.2233 3.3658 23.74559 3.3658 16.43026 0 30.5846-5.1426 40.68032-15.232 26.13009-26.2134 17.33101-78.14-18.59785-120.3779zm-14.83604 12.2622-2.95665 1.1351c-0.6132 3.0894-1.94557 5.8757-4.09179 8.0384-0.4088 0.412-0.91453 0.8262-1.42553 1.1352 2.65723 5.5608 4.28978 11.7299 4.28978 18.3206 0 23.1705-18.70142 42.0135-41.69667 42.0135-6.54086 0-12.66982-1.5357-18.18867-4.3162-0.40882 0.515-0.72635 1.0266-1.13514 1.4387-2.14625 2.1625-4.79738 3.4952-7.76121 3.907l-1.12194 2.9963c8.27829 5.1488 17.87484 8.1308 28.29936 8.1308 29.74051 0 53.86645-24.3085 53.86645-54.2757 0-10.5039-2.96793-20.1823-8.07799-28.5237zm-45.98645 1.7027a27.032219 27.032219 0 0 0-27.03222 27.0322 27.032219 27.032219 0 0 0 27.03222 27.0322 27.032219 27.032219 0 0 0 27.03222-27.0322 27.032219 27.032219 0 0 0-27.03222-27.0322zm-28.55015 48.8243c-1.69999 0-3.40455 0.7038-4.80455 2.0063-1.99999 2.0038-2.49152 4.9078-1.49152 7.3124l-13.60851 5.3062-56.29513 67.1317 1.20114 1.2012 66.99978-56.4007 5.29293-13.6349c0.8 0.3005 1.70027 0.5015 2.60027 0.5015 1.7 0 3.39896-0.7038 4.69896-2.0063 2.6-2.605 2.6-6.9118 0-9.5167-1.2-1.3025-2.89337-1.9007-4.59337-1.9007zm-5.8473 33.3547-6.53366 5.4381c5.74069 4.9459 11.78149 9.3945 18.01708 13.4501 2.37546-0.7912 7.3194-2.7663 9.39792-4.0522-7.72026-4.4511-13.75495-8.9008-20.88134-14.836z" style="fill:#ffffff"/>
</svg>

<svg xmlns="http://www.w3.org/2000/svg" width="48" height="48" version="1.1">
 <circle style="opacity:0.2" cx="24" cy="25" r="20"/>
 <circle style="fill:#6a1b9a" cx="24" cy="24" r="20"/>
 <path style="opacity:0.1;fill:#ffffff" d="M 24,4 A 20,20 0 0 0 4,24 20,20 0 0 0 4.0352,24.5 20,20 0 0 1 24,5 20,20 0 0 1 43.982,24.25 20,20 0 0 0 44,24 20,20 0 0 0 24,4 Z"/>
 <path style="opacity:0.2" d="M 38.477,10.209 29.379,17.832 28.594,19.848 C 28.475,19.803 28.342,19.773 28.209,19.773 27.957,19.773 27.706,19.878 27.514,20.07 27.129,20.456 27.129,21.093 27.514,21.479 27.706,21.671 27.958,21.775 28.225,21.775 28.476,21.775 28.728,21.671 28.936,21.479 29.231,21.182 29.304,20.752 29.156,20.396 L 31.17,19.611 38.783,10.531 A 20,20 0 0 0 38.477,10.209 Z M 18.207,11 C 15.864,11.013 13.772,11.747 12.26,13.254 10.195,15.318 9.5216,18.494 10.342,22.197 10.556,23.141 10.862,24.09 11.252,25.033 9.6202,29.311 9.5363,33.293 11.279,35.502 L 12.129,34.492 C 10.979,32.406 10.976,29.571 11.975,26.586 12.772,28.13 13.79,29.639 15,31.053 L 15.805,30.086 C 14.46,28.475 13.37,26.753 12.59,25.01 13.614,22.71 15.203,20.384 17.299,18.289 19.351,16.238 21.66,14.63 24.012,13.59 25.725,14.358 27.452,15.439 29.088,16.811 L 30.055,16.006 C 28.616,14.781 27.1,13.771 25.572,12.986 26.076,12.819 26.58,12.676 27.082,12.564 29.601,11.994 31.827,12.199 33.512,13.121 L 34.521,12.273 C 33.142,11.398 31.445,10.965 29.533,11.004 28.664,11.021 27.752,11.137 26.805,11.352 25.865,11.562 24.918,11.864 23.979,12.25 22.005,11.415 20.03,10.99 18.207,11 Z M 18.152,12.227 C 19.493,12.213 20.944,12.465 22.432,12.967 20.312,14.056 18.259,15.563 16.42,17.41 14.537,19.292 13.047,21.36 11.979,23.451 11.805,22.939 11.659,22.427 11.543,21.918 10.811,18.654 11.367,15.887 13.125,14.131 14.394,12.863 16.15,12.247 18.152,12.227 Z M 36.734,14.482 35.885,15.492 C 36.588,16.78 36.866,18.39 36.705,20.205 37.071,20.791 37.408,21.362 37.701,21.947 38.316,19.02 37.979,16.429 36.734,14.482 Z M 23.971,17 C 19.57,17 16,20.597 16,25.031 16,26.586 16.438,28.018 17.209,29.252 L 17.648,29.084 C 17.724,28.627 17.921,28.215 18.238,27.895 18.299,27.834 18.374,27.774 18.449,27.729 18.056,26.906 17.814,25.991 17.814,25.016 17.814,21.587 20.582,18.799 23.984,18.799 24.952,18.799 25.861,19.026 26.678,19.437 26.738,19.361 26.783,19.286 26.844,19.225 27.161,18.905 27.554,18.707 27.992,18.646 L 28.158,18.203 C 26.933,17.441 25.513,17 23.971,17 Z M 33,18.934 32.193,19.898 C 33.567,21.535 34.65,23.264 35.418,24.979 L 35.387,25.051 C 34.332,27.393 32.721,29.705 30.715,31.695 27.771,34.637 24.3,36.673 20.932,37.42 18.413,37.991 16.186,37.784 14.502,36.848 L 13.49,37.697 C 14.823,38.561 16.586,39 18.402,39 19.34,39 20.184,38.869 21.209,38.635 24.812,37.83 28.503,35.677 31.594,32.574 33.42,30.749 34.942,28.686 36.039,26.555 37.291,30.266 36.991,33.746 34.873,35.854 33.277,37.449 30.773,38.048 27.873,37.58 27.331,37.917 26.775,38.224 26.219,38.502 27.449,38.824 28.619,39 29.732,39 32.164,39 34.258,38.239 35.752,36.746 39.618,32.867 38.316,25.184 33,18.934 Z M 30.805,20.748 30.367,20.916 C 30.276,21.373 30.079,21.785 29.762,22.105 29.701,22.166 29.626,22.228 29.551,22.273 29.944,23.096 30.186,24.009 30.186,24.984 30.186,28.413 27.418,31.201 24.016,31.201 23.048,31.201 22.141,30.974 21.324,30.562 21.264,30.639 21.217,30.714 21.156,30.775 20.839,31.095 20.446,31.293 20.008,31.354 L 19.842,31.797 C 21.067,32.559 22.487,33 24.029,33 28.43,33 32,29.403 32,24.969 32,23.414 31.561,21.982 30.805,20.748 Z M 24,21 A 4,4 0 0 0 20,25 4,4 0 0 0 24,29 4,4 0 0 0 28,25 4,4 0 0 0 24,21 Z M 19.775,28.225 C 19.524,28.225 19.272,28.329 19.064,28.521 18.769,28.818 18.696,29.248 18.844,29.604 L 16.83,30.389 10.146,38.359 A 20,20 0 0 0 10.637,38.85 L 18.592,32.154 19.375,30.137 C 19.493,30.181 19.627,30.211 19.76,30.211 20.011,30.211 20.263,30.107 20.455,29.914 20.84,29.529 20.84,28.891 20.455,28.506 20.278,28.313 20.027,28.225 19.775,28.225 Z M 18.91,33.16 17.943,33.965 C 18.793,34.697 19.687,35.355 20.609,35.955 20.961,35.838 21.692,35.546 22,35.355 20.858,34.697 19.965,34.038 18.91,33.16 Z"/>
 <path style="fill:#ffffff" d="M 39.321,8.503 29.377,16.834 28.593,18.846 C 28.474,18.802 28.341,18.772 28.208,18.772 27.957,18.772 27.705,18.876 27.513,19.068 27.128,19.453 27.128,20.089 27.513,20.489 27.705,20.681 27.957,20.785 28.223,20.785 28.474,20.785 28.727,20.681 28.935,20.489 29.231,20.178 29.303,19.749 29.155,19.394 L 31.169,18.609 39.498,8.6806 Z M 29.531,10.012 C 28.662,10.027 27.751,10.146 26.802,10.353 25.863,10.56 24.916,10.871 23.978,11.255 19.465,9.3465 14.947,9.5832 12.258,12.261 10.193,14.318 9.5195,17.5 10.341,21.199 10.555,22.146 10.86,23.093 11.251,24.04 9.6186,28.316 9.5343,32.297 11.277,34.501 L 12.128,33.495 C 10.977,31.409 10.974,28.568 11.973,25.594 12.77,27.132 13.788,28.642 14.999,30.062 L 15.804,29.086 C 14.459,27.473 13.368,25.756 12.588,24.01 13.612,21.717 15.202,19.394 17.297,17.292 19.349,15.236 21.659,13.638 24.01,12.587 25.724,13.356 27.45,14.437 29.086,15.813 L 30.053,15.014 C 28.615,13.786 27.098,12.779 25.571,11.995 26.074,11.818 26.579,11.684 27.081,11.566 29.599,11.004 31.826,11.196 33.51,12.128 L 34.52,11.27 C 33.14,10.397 31.443,9.9679 29.531,10.012 Z M 18.151,11.226 C 19.491,11.211 20.943,11.462 22.43,11.966 20.311,13.061 18.257,14.57 16.418,16.419 14.536,18.299 13.046,20.37 11.977,22.457 11.804,21.939 11.658,21.436 11.542,20.918 10.81,17.662 11.366,14.895 13.124,13.135 14.392,11.862 16.149,11.255 18.151,11.226 Z M 36.733,13.49 35.883,14.496 C 36.586,15.783 36.864,17.396 36.703,19.201 37.07,19.793 37.406,20.37 37.699,20.947 38.314,18.018 37.977,15.428 36.733,13.49 Z M 23.969,16.005 C 19.568,16.005 15.999,19.601 15.999,24.04 15.999,25.594 16.436,27.014 17.208,28.257 L 17.647,28.079 C 17.723,27.636 17.92,27.221 18.236,26.896 18.297,26.837 18.373,26.777 18.448,26.733 18.054,25.904 17.813,24.987 17.813,24.025 17.813,20.592 20.58,17.796 23.982,17.796 24.951,17.796 25.86,18.032 26.677,18.447 26.737,18.358 26.782,18.284 26.842,18.225 27.159,17.914 27.553,17.707 27.991,17.648 L 28.156,17.204 C 26.931,16.449 25.512,16.005 23.969,16.005 Z M 32.998,17.944 32.191,18.905 C 33.565,20.533 34.648,22.264 35.416,23.981 L 35.385,24.055 C 34.331,26.393 32.72,28.701 30.713,30.699 27.77,33.643 24.299,35.67 20.929,36.425 18.411,36.987 16.184,36.78 14.5,35.848 L 13.488,36.706 C 14.821,37.564 16.585,38.008 18.401,38.008 19.339,38.008 20.182,37.875 21.208,37.638 24.811,36.839 28.503,34.679 31.592,31.572 33.418,29.752 34.939,27.695 36.037,25.564 37.289,29.263 36.99,32.755 34.871,34.856 33.275,36.455 30.771,37.046 27.871,36.588 27.329,36.913 26.774,37.224 26.216,37.505 27.448,37.831 28.618,38.008 29.731,38.008 32.162,38.008 34.257,37.239 35.75,35.744 39.617,31.868 38.314,24.188 32.998,17.944 Z M 30.803,19.749 30.365,19.912 C 30.275,20.37 30.077,20.785 29.76,21.11 29.7,21.169 29.624,21.228 29.549,21.273 29.942,22.101 30.183,23.019 30.183,23.981 30.183,27.414 27.416,30.21 24.015,30.21 23.047,30.21 22.14,29.973 21.323,29.559 21.262,29.648 21.215,29.722 21.154,29.781 20.838,30.092 20.444,30.299 20.006,30.358 L 19.84,30.802 C 21.066,31.557 22.485,32.001 24.028,32.001 28.429,32.001 31.998,28.405 31.998,23.966 31.998,22.412 31.56,20.992 30.803,19.749 Z M 23.998,20 A 3.9999,3.9999 0 0 0 19.999,23.995 3.9999,3.9999 0 0 0 23.998,28.005 3.9999,3.9999 0 0 0 27.998,23.995 3.9999,3.9999 0 0 0 23.998,20 Z M 19.774,27.221 C 19.522,27.221 19.271,27.325 19.064,27.517 18.768,27.828 18.694,28.257 18.842,28.612 L 16.829,29.396 8.4985,39.325 8.676,39.503 18.59,31.157 19.373,29.145 C 19.491,29.189 19.624,29.219 19.758,29.219 20.009,29.219 20.261,29.115 20.453,28.923 20.838,28.538 20.838,27.887 20.453,27.502 20.275,27.31 20.025,27.221 19.774,27.221 Z M 18.908,32.163 17.942,32.962 C 18.791,33.702 19.685,34.353 20.608,34.96 20.959,34.842 21.691,34.546 21.998,34.353 20.855,33.702 19.963,33.036 18.908,32.163 Z"/>
</svg>
